icons/racket.svg

<svg width="16" height="16" viewBox="0 0 16 16" fill="none" xmlns="http://www.w3.org/2000/svg">
<path d="M12.6019 11.5964C13.3941 10.5877 13.8666 9.316 13.8666 7.93391C13.8666 4.65671 11.2102 2 7.93329 2C7.22048 2 6.53706 2.12583 5.90391 2.3563C8.3127 3.61999 11.499 7.7429 12.6019 11.5964Z" fill="#5E7DD0"/>
<path d="M7.08352 5.78513C6.15796 4.78792 5.12144 3.99595 4.02364 3.4707C2.78333 4.55832 2 6.15452 2 7.93389C2 9.43005 2.55387 10.7967 3.46748 11.8405C4.27287 9.42048 5.78697 7.088 7.08352 5.78513Z" fill="#D53D41"/>
<path d="M8.1768 7.13068C6.8923 8.51516 5.6123 10.9388 5.14906 13.1748C5.97939 13.6169 6.92699 13.8678 7.93332 13.8678C8.96791 13.8678 9.94048 13.6028 10.7873 13.1372C10.2992 10.8816 9.37779 8.81587 8.1768 7.13068Z" fill="#D53D41"/>
</svg>

<svg xmlns="http://www.w3.org/2000/svg" width="16" height="16" fill="none" viewBox="0 0 16 16"><path fill="#5E7DD0" d="M12.602 11.596a5.934 5.934 0 0 0-6.698-9.24c2.409 1.264 5.595 5.387 6.698 9.24"/><path fill="#D53D41" d="M7.084 5.785c-.926-.997-1.963-1.789-3.06-2.314A5.92 5.92 0 0 0 2 7.934c0 1.496.554 2.863 1.467 3.907.806-2.42 2.32-4.753 3.617-6.056M8.177 7.13c-1.285 1.385-2.565 3.809-3.028 6.045.83.442 1.778.693 2.784.693a5.9 5.9 0 0 0 2.854-.73c-.488-2.256-1.41-4.322-2.61-6.007"/></svg>
